contributed-vectors/typewise.svg

<svg width="192" height="192" viewBox="0 0 192 192" fill="none" xmlns="http://www.w3.org/2000/svg">
<g clip-path="url(#clip0)">
<g clip-path="url(#clip1)">
<path d="M166 167.23H25C21.69 167.23 19 164.54 19 161.23V86.71C19 83.4 21.69 80.71 25 80.71H166C169.31 80.71 172 83.4 172 86.71V161.23C172 164.55 169.31 167.23 166 167.23Z" fill="#D2D2D2"/>
<path d="M141.34 63.55L133.56 92.57L131.9 98.76L131.39 100.65C130.61 103.58 128.41 105.9 125.57 106.86C125.38 106.93 125.19 106.99 125 107.04L119.96 108.39L96.3299 114.72L87.8999 116.98C87.7899 117.01 87.6899 117.03 87.5799 117.05C85.4099 117.56 83.1599 117.23 81.2499 116.2C80.5199 115.81 79.8499 115.31 79.2499 114.72C79.2199 114.69 79.1999 114.67 79.1699 114.64L72.9199 108.39L65.4299 100.91L51.9999 87.49C49.7099 85.2 48.8199 81.87 49.6599 78.74L59.5999 41.65C60.4299 38.53 62.8799 36.08 65.9999 35.25L103.1 25.31C106.22 24.48 109.56 25.36 111.85 27.65L139 54.81C141.28 57.09 142.17 60.42 141.34 63.55Z" fill="#9ABEFF"/>
<path d="M81.9602 70.43L84.2602 79.02C84.7002 80.65 86.0402 81.38 87.4302 81.01L89.5702 80.44L90.4802 83.83C90.1002 84.28 89.0202 84.87 87.9502 85.15C84.5602 86.06 80.9102 84.15 79.9902 80.71L77.5502 71.61L74.4902 72.43L73.4902 68.71L76.5502 67.89L74.5102 60.28L78.9202 59.1L80.9602 66.72L85.6502 65.46L86.6502 69.18L81.9602 70.43Z" fill="white"/>
<path d="M117.52 56.91L116.18 77.19L111.44 78.46L103.88 66.99L103.03 80.71L98.3402 81.97L86.9502 65.1L91.9202 63.77L99.5902 76.4L100.43 61.49L104.15 60.49L112.35 73.08L112.65 58.21L117.52 56.91Z" fill="white"/>
<path d="M59.1 114.72H43.27V130.55H59.1V114.72Z" fill="white"/>
<path d="M59.1 94.58V108.39H43.27V92.56H57.08L59.1 94.58Z" fill="white"/>
<path d="M81.2502 116.2V130.55H65.4302V114.72H79.2502C79.8502 115.31 80.5302 115.81 81.2502 116.2Z" fill="white"/>
<path d="M72.9202 108.39H65.4302V100.91L72.9202 108.39Z" fill="white"/>
<path d="M103.41 114.72V130.55H87.5898V117.05C87.6998 117.03 87.7999 117.01 87.9099 116.98L96.3398 114.72H103.41Z" fill="white"/>
<path d="M125.57 114.72H109.74V130.55H125.57V114.72Z" fill="white"/>
<path d="M125.57 106.86V108.39H119.96L125 107.04C125.19 106.99 125.38 106.94 125.57 106.86Z" fill="white"/>
<path d="M147.73 114.72H131.9V130.55H147.73V114.72Z" fill="white"/>
<path d="M147.73 92.56V108.39H131.9V98.76L133.56 92.56H147.73Z" fill="white"/>
<path d="M158.81 139.18H32.1899V158.17H158.81V139.18Z" fill="white"/>
</g>
</g>
<defs>
<clipPath id="clip0">
<rect width="192" height="192" fill="white"/>
</clipPath>
<clipPath id="clip1">
<rect width="153" height="142.23" fill="white" transform="translate(19 25)"/>
</clipPath>
</defs>
</svg>

<svg xmlns="http://www.w3.org/2000/svg" width="192" height="192" fill="none"><g clip-path="url(#a)"><g clip-path="url(#b)"><path fill="#D2D2D2" d="M166 167.23H25c-3.31 0-6-2.69-6-6V86.71c0-3.31 2.69-6 6-6h141c3.31 0 6 2.69 6 6v74.52c0 3.32-2.69 6-6 6Z"/><path fill="#9ABEFF" d="m141.34 63.55-7.78 29.02-1.66 6.19-.51 1.89a9.006 9.006 0 0 1-5.82 6.21c-.19.07-.38.13-.57.18l-5.04 1.35-23.63 6.33-8.43 2.26c-.11.03-.21.05-.32.07-2.17.51-4.42.18-6.33-.85a8.71 8.71 0 0 1-2-1.48l-.08-.08-6.25-6.25-7.49-7.48L52 87.49a9.046 9.046 0 0 1-2.34-8.75l9.94-37.09a9.039 9.039 0 0 1 6.4-6.4l37.1-9.94c3.12-.83 6.46.05 8.75 2.34L139 54.81a9.068 9.068 0 0 1 2.34 8.74Z"/><path fill="#fff" d="m81.96 70.43 2.3 8.59c.44 1.63 1.78 2.36 3.17 1.99l2.14-.57.91 3.39c-.38.45-1.46 1.04-2.53 1.32-3.39.91-7.04-1-7.96-4.44l-2.44-9.1-3.06.82-1-3.72 3.06-.82-2.04-7.61 4.41-1.18 2.04 7.62 4.69-1.26 1 3.72-4.69 1.25ZM117.52 56.91l-1.34 20.28-4.74 1.27-7.56-11.47-.85 13.72-4.69 1.26L86.95 65.1l4.97-1.33 7.67 12.63.84-14.91 3.72-1 8.2 12.59.3-14.87 4.87-1.3ZM59.1 114.72H43.27v15.83H59.1v-15.83ZM59.1 94.58v13.81H43.27V92.56h13.81l2.02 2.02ZM81.25 116.2v14.35H65.43v-15.83h13.82c.6.59 1.28 1.09 2 1.48ZM72.92 108.39h-7.49v-7.48l7.49 7.48ZM103.41 114.72v15.83H87.59v-13.5c.11-.02.21-.04.32-.07l8.43-2.26h7.07ZM125.57 114.72h-15.83v15.83h15.83v-15.83ZM125.57 106.86v1.53h-5.61l5.04-1.35c.19-.05.38-.1.57-.18ZM147.73 114.72H131.9v15.83h15.83v-15.83ZM147.73 92.56v15.83H131.9v-9.63l1.66-6.2h14.17ZM158.81 139.18H32.19v18.99h126.62v-18.99Z"/></g></g><defs><clipPath id="a"><path fill="#fff" d="M0 0h192v192H0z"/></clipPath><clipPath id="b"><path fill="#fff" d="M19 25h153v142.23H19z"/></clipPath></defs></svg>
